!!!COM: Hugo Wolf
!!!CNT: Deutscher
!!!TXO: Deutsche 
!!!OTL: Schlafendes Jesuskind
!!!ONM: No. 25
!!!ODT: 1888/
!!!LYR: Moericke
!!!ENC: Brian Bice
!!!YOR: 65 Songs for voice and piano, International Music Company, 1960
!!NB: Vocal melody and text only encoded.
**kern	**silbe
*clefG2	*
*k[b-]	*
*M4/2	*
=5	=5
4r	.
{2a	{Sohn
4a	der
2g	Jung-
2f	-frau,
=6	=6
2.cc	Him-
4dd	-mels-
2dd}	-kind!}
2r	.
=7	=7
4r	.
{4g	{am
4.b-	Bo-
8b-	-den
4a	auf
4a	dem
(6cc	Holz
6bn)	|
6a	der
=8	=8
4.f	Schmer-
8f	-zen
4.e	ein-
8d	-ge-
(4.c#	-schla-
8e)	|
2e}	-fen,}
=9	=9
4r	.
{2f	{das
4f	der
4f	from-
4g	-me
4a-	Mei-
4b-	-ster
=10	=10
4r	.
2dd-	sinn-
4cc	-voll
4cc	spie-
4b-}	-lend}
{4an	{dei-
4b-	-nen
=11	=11
(4ee-	leich-
[4dd-	|
6dd-]	|
6cc)	|
6b-	-ten
4b-	Tra2u-
4a	-men
4g	un-
4f	-ter-
=12	=12
4e	-leg-
4e-}	-te;}
2r	.
1r	.
=14	=14
4r	.
{2b-	{Blu-
4a-	-me
4.g	du,
8r	.
6g	noch
6g	in
6a-	der
=15	=15
(4b-	Knos-
2ee-)	|
4dd-	-pe
4cc	da2m-
4f}	-mernd}
{[2ff	{ein-
=16	=16
4ff]	|
4ff	-ge-
4ff	-hu2llt
4gg	die
4aa-	Herr-
4ee-	-lich-
4ddn	-keit
4cc	des
=17	=17
4cc	Va-
4b-}	-ters!}
2r	.
1r	.
=18	=18
4r	.
{2ff	{O
4ee	wer
4.dd	se-
8g	-hen
4g	ko2nn-
4a}	-te,}
=19	=19
4r	.
{([4b-	{wel-
6b-]	|
6a)	|
6g	-che
4bn	Bil-
4cc	-der
4a	hin-
4b-	-ter
=20	=20
4bn	die-
4cc	-ser
2.ee-	Stir-
4dd}	-ne,}
{4cc#	{die-
4cc#	-sen
=21	=21
4dd#	schwar-
4een	-zen
4gg	Wim-
4ff	-pern,
4r	.
[(4ff	sich
6ff]	|
6ee)	|
6ddn	in
=22	=22
4dd	sanf-
4cc	-trem
(6a	Wech-
6g)	|
6f	-sel
2.d	ma-
4e}	-len!}
=27	=27
4r	.
{2a	{Sohn
4a	der
2g	Jung-
2f	-frau,
=28	=28
2.cc	Him-
4dd	-mels-
[1dd	-kind!
=29	=29
2.dd]}	|}
4r	.
1r	.
*-	*-
